X: 118
T:Tralee Gaol
N: page 39
N: pentatonic
R: polka
S:Ireland, via PR
M:2/4
L:1/8
K:Emin
Q:1/4=60
"Em"BE EF/A/|"Em"B>A "D"FA|"Em"BE EF/E/|"Bm"D2 D/E/F/A/|\
"Em"BE EF/A/|"Em"B>A "D"FA|"Em"BA "D"dF|"Em"FE E2::
"Em"Be ed/e/|"Bm"f>e dB|"D" Be ed/e/|f/g/f/e/ "Bm" d2|\
"Em"Be ed/e/|"Bm"f>e dB|"Bm"AF dF|"Em"FE E2:|
